public/icons/Godot-Dark.svg

<svg xmlns="http://www.w3.org/2000/svg" width="256" height="256" fill="none" viewBox="0 0 256 256"><rect width="256" height="256" fill="#242938" rx="60"/><path fill="#fff" d="M222.017 163.681C222.017 163.681 221.705 161.792 221.522 161.809L186.772 165.116C184.007 165.379 181.86 167.554 181.666 170.286L180.711 183.781L153.827 185.673L151.998 173.442C151.591 170.722 149.182 168.672 146.394 168.672H109.718C106.931 168.672 104.522 170.722 104.115 173.442L102.285 185.673L75.4013 183.781L74.4466 170.286C74.2526 167.553 72.1051 165.378 69.3401 165.115L34.573 161.809C34.3934 161.792 34.2618 163.683 34.0822 163.683L34.0352 171.099L63.4796 175.782L64.4439 189.397C64.6389 192.153 66.8939 194.382 69.6906 194.58L106.716 197.185C106.856 197.194 106.994 197.2 107.133 197.2C109.915 197.2 112.32 195.148 112.727 192.428L114.608 179.844H141.505L143.386 192.428C143.793 195.147 146.2 197.199 148.987 197.199C149.123 197.199 149.259 197.194 149.393 197.185L186.423 194.58C189.218 194.382 191.474 192.153 191.669 189.397L192.633 175.782L222.065 171.078L222.017 163.681Z"/><path fill="#478CBF" d="M34.0818 107.758V152.763V158.479V163.681C34.1856 163.682 34.2893 163.686 34.3921 163.695L69.1553 167.001C70.9763 167.174 72.4034 168.619 72.5302 170.419L73.602 185.553L103.926 187.687L106.015 173.719C106.286 171.908 107.861 170.566 109.719 170.566H146.395C148.251 170.566 149.827 171.908 150.097 173.719L152.186 187.687L182.511 185.553L183.582 170.419C183.71 168.619 185.136 167.175 186.957 167.001L221.707 163.695C221.81 163.686 221.913 163.682 222.016 163.681V159.219L222.031 159.214V107.758H222.159C226.765 101.961 231.026 95.8527 235.113 89.3361C229.685 80.2242 223.035 72.0812 215.927 64.5368C209.335 67.8094 202.932 71.5167 196.884 75.4617C193.858 72.4951 190.449 70.0684 187.101 67.5318C183.812 64.9261 180.105 63.0157 176.589 60.7898C177.635 53.1014 178.153 45.5325 178.361 37.6329C169.289 33.13 159.615 30.1445 149.829 28C145.922 34.476 142.35 41.4889 139.238 48.3447C135.548 47.7366 131.841 47.5112 128.129 47.4676V47.4619C128.103 47.4619 128.079 47.4676 128.057 47.4676C128.034 47.4676 128.01 47.4619 127.987 47.4619V47.4676C124.268 47.5112 120.564 47.7366 116.873 48.3447C113.763 41.4889 110.192 34.476 106.279 28C96.4984 30.1445 86.8232 33.13 77.752 37.6329C77.9595 45.5325 78.4771 53.1014 79.5269 60.7898C76.0041 63.0157 72.3016 64.9261 69.0113 67.5318C65.668 70.0684 62.2538 72.4951 59.2265 75.4617C53.1788 71.5167 46.7776 67.8094 40.1834 64.5368C33.0753 72.0812 26.4292 80.2242 21 89.3361C25.0847 95.8527 29.3489 101.961 33.9531 107.758H34.0818Z"/><path fill="#478CBF" d="M190.83 174.05L189.753 189.265C189.624 191.099 188.144 192.558 186.285 192.69L149.256 195.296C149.166 195.302 149.076 195.305 148.986 195.305C147.146 195.305 145.559 193.973 145.287 192.151L143.163 177.949H112.95L110.826 192.151C110.541 194.062 108.808 195.437 106.857 195.296L69.8278 192.69C67.9684 192.558 66.4894 191.099 66.3597 189.265L65.2831 174.05L34.0244 171.078C34.0388 174.391 34.0821 178.021 34.0821 178.744C34.0821 211.302 75.961 226.952 127.993 227.132H128.056H128.12C180.152 226.952 222.016 211.302 222.016 178.744C222.016 178.008 222.062 174.393 222.077 171.078L190.83 174.05Z"/><path fill="#fff" d="M99.7266 130.459C99.7266 141.874 90.3481 151.122 78.777 151.122C67.2117 151.122 57.8303 141.874 57.8303 130.459C57.8303 119.051 67.2117 109.808 78.777 109.808C90.3481 109.808 99.7266 119.051 99.7266 130.459Z"/><path fill="#414042" d="M94.6858 131.684C94.6858 139.256 88.4632 145.393 80.7799 145.393C73.1004 145.393 66.874 139.256 66.874 131.684C66.874 124.112 73.1004 117.97 80.7799 117.97C88.4632 117.97 94.6858 124.112 94.6858 131.684Z"/><path fill="#fff" d="M128.055 153.001C124.33 153.001 121.312 150.294 121.312 146.957V127.937C121.312 124.603 124.33 121.893 128.055 121.893C131.779 121.893 134.804 124.603 134.804 127.937V146.957C134.804 150.294 131.779 153.001 128.055 153.001Z"/><path fill="#fff" d="M156.386 130.459C156.386 141.874 165.765 151.122 177.338 151.122C188.902 151.122 198.283 141.874 198.283 130.459C198.283 119.051 188.902 109.808 177.338 109.808C165.765 109.808 156.386 119.051 156.386 130.459Z"/><path fill="#414042" d="M161.428 131.684C161.428 139.256 167.649 145.393 175.327 145.393C183.012 145.393 189.233 139.256 189.233 131.684C189.233 124.112 183.012 117.97 175.327 117.97C167.649 117.97 161.428 124.112 161.428 131.684Z"/></svg>

<svg xmlns="http://www.w3.org/2000/svg" width="256" height="256" fill="none"><rect width="256" height="256" fill="#242938" rx="60"/><path fill="#fff" d="M222.017 163.681s-.312-1.889-.495-1.872l-34.75 3.307c-2.765.263-4.912 2.438-5.106 5.17l-.955 13.495-26.884 1.892-1.829-12.231c-.407-2.72-2.816-4.77-5.604-4.77h-36.676c-2.787 0-5.196 2.05-5.603 4.77l-1.83 12.231-26.884-1.892-.954-13.495c-.194-2.733-2.342-4.908-5.107-5.171l-34.767-3.306c-.18-.017-.311 1.874-.49 1.874l-.048 7.416 29.445 4.683.964 13.615c.195 2.756 2.45 4.985 5.247 5.183l37.025 2.605q.21.014.417.015c2.782 0 5.187-2.052 5.594-4.772l1.881-12.584h26.897l1.881 12.584c.407 2.719 2.814 4.771 5.601 4.771q.204 0 .406-.014l37.03-2.605c2.795-.198 5.051-2.427 5.246-5.183l.964-13.615 29.432-4.704z"/><path fill="#478CBF" d="M34.082 107.758v55.923q.156.001.31.014l34.763 3.306c1.821.173 3.248 1.618 3.375 3.418l1.072 15.134 30.324 2.134 2.089-13.968c.271-1.811 1.846-3.153 3.704-3.153h36.676c1.856 0 3.432 1.342 3.702 3.153l2.089 13.968 30.325-2.134 1.071-15.134c.128-1.8 1.554-3.244 3.375-3.418l34.75-3.306q.155-.013.309-.014v-4.462l.015-.005v-51.456h.128c4.606-5.797 8.867-11.905 12.954-18.422-5.428-9.112-12.078-17.255-19.186-24.8-6.592 3.273-12.995 6.98-19.043 10.926-3.026-2.967-6.435-5.394-9.783-7.93-3.289-2.606-6.996-4.516-10.512-6.742 1.046-7.689 1.564-15.257 1.772-23.157-9.072-4.503-18.746-7.489-28.532-9.633-3.907 6.476-7.479 13.489-10.591 20.345-3.69-.608-7.397-.834-11.109-.877v-.006c-.026 0-.05.006-.072.006-.023 0-.047-.006-.07-.006v.006c-3.719.043-7.423.269-11.114.877-3.11-6.856-6.681-13.869-10.594-20.345-9.78 2.145-19.456 5.13-28.527 9.633.208 7.9.725 15.468 1.775 23.157-3.523 2.226-7.225 4.136-10.516 6.742-3.343 2.536-6.757 4.963-9.784 7.93-6.048-3.945-12.45-7.653-19.044-10.925C33.075 72.08 26.43 80.224 21 89.337c4.085 6.516 8.349 12.624 12.953 18.421z"/><path fill="#478CBF" d="m190.83 174.05-1.077 15.215c-.129 1.834-1.609 3.293-3.468 3.425l-37.029 2.606q-.135.009-.27.009c-1.84 0-3.427-1.332-3.699-3.154l-2.124-14.202H112.95l-2.124 14.202c-.285 1.911-2.018 3.286-3.969 3.145l-37.03-2.606c-1.859-.132-3.338-1.591-3.467-3.425l-1.077-15.215-31.259-2.972c.015 3.313.058 6.943.058 7.666 0 32.558 41.879 48.208 93.911 48.388h.127c52.032-.18 93.896-15.83 93.896-48.388 0-.736.046-4.351.061-7.666z"/><path fill="#fff" d="M99.727 130.459c0 11.415-9.379 20.663-20.95 20.663-11.565 0-20.947-9.248-20.947-20.663 0-11.408 9.382-20.651 20.947-20.651 11.571 0 20.95 9.243 20.95 20.651"/><path fill="#414042" d="M94.686 131.684c0 7.572-6.223 13.709-13.906 13.709-7.68 0-13.906-6.137-13.906-13.709S73.1 117.97 80.78 117.97c7.683 0 13.906 6.142 13.906 13.714"/><path fill="#fff" d="M128.055 153.001c-3.725 0-6.743-2.707-6.743-6.044v-19.02c0-3.334 3.018-6.044 6.743-6.044 3.724 0 6.749 2.71 6.749 6.044v19.02c0 3.337-3.025 6.044-6.749 6.044M156.386 130.459c0 11.415 9.379 20.663 20.952 20.663 11.564 0 20.945-9.248 20.945-20.663 0-11.408-9.381-20.651-20.945-20.651-11.573 0-20.952 9.243-20.952 20.651"/><path fill="#414042" d="M161.428 131.684c0 7.572 6.221 13.709 13.899 13.709 7.685 0 13.906-6.137 13.906-13.709s-6.221-13.714-13.906-13.714c-7.678 0-13.899 6.142-13.899 13.714"/></svg>
